X:45
T:St. Beuno
M:C
L:1/2
Q:50
C:Ifan Williams 1586
R:Hymn
K:G
E2 | G F | B F | G F
| E2 || G2 | F G | A
B | c B || c2 | A c |
B F | G E | F2 || E2
| A c | B G | F E ||
